modules/hawcons-stroke/icons/icon-72-documents.svg

<?xml version="1.0" encoding="UTF-8" standalone="no"?>
<svg width="32px" height="32px" viewBox="0 0 32 32" version="1.1" xmlns="http://www.w3.org/2000/svg" xmlns:xlink="http://www.w3.org/1999/xlink" xmlns:sketch="http://www.bohemiancoding.com/sketch/ns">
    <!-- Generator: Sketch 3.0.3 (7891) - http://www.bohemiancoding.com/sketch -->
    <title>icon 72 documents</title>
    <desc>Created with Sketch.</desc>
    <defs></defs>
    <g id="Page-1" stroke="none" stroke-width="1" fill="none" fill-rule="evenodd" sketch:type="MSPage">
        <g id="icon-72-documents" sketch:type="MSArtboardGroup" fill="#929292">
            <path d="M6.99742626,5.00171601 L6.99742191,5 C5.89427625,5 5,5.89833832 5,7.00732994 L5,29.9926701 C5,31.1012878 5.89092539,32 6.99742191,32 L22.0025781,32 C23.1032923,32 23.9960568,31.1056174 24.0025781,30 C25.1032923,30 25.9960568,29.1056174 26.0025781,28 C27.1057238,28 28,27.1017876 28,26.0092049 L28,8.5 L28,8 L22,1 L11.0027601,1 C9.8991042,1 9.00395372,1.89438261 8.99742191,3 C7.8967077,3 7.00394318,3.89438261 7.00001303,5 C7,5 6.99999675,5.00000215 6.99999027,5.00000644 C7.00001302,5.00000205 7.00001302,5.00000102 7.00001303,5 L6.99742626,5.00171601 L6.99742626,5.00171601 Z M6.9999602,6 C6.44769743,6 6,6.45526288 6,6.99545703 L6,30.004543 C6,30.5543187 6.45470893,31 6.9999602,31 L22.0000398,31 C22.5523026,31 23,30.5447371 23,30.004543 L8.99742191,30 C7.89092539,30 7,29.1012878 7,27.9926701 L7,6 C6.99999989,5.99999993 6.99998784,5.99999184 6.99996397,5.99997579 L6.9999602,6 L6.9999602,6 Z M8.9999602,4 C8.44769743,4 8,4.45526288 8,4.99545703 L8,28.004543 C8,28.5543187 8.45470893,29 8.9999602,29 L24.0000398,29 C24.5523026,29 25,28.5447371 25,28.004543 L25,28 L10.9974219,28 C9.89092539,28 9,27.1012878 9,25.9926701 L9,4 L8.9999602,4 L8.9999602,4 Z M21,2 L10.9955775,2 C10.4457352,2 10,2.45526288 10,2.99545703 L10,26.004543 C10,26.5543187 10.4547089,27 10.9999602,27 L26.0000398,27 C26.5523026,27 27,26.5550537 27,26.0066023 L27,9 L22.9979131,9 C21.8944962,9 21,8.11344516 21,6.99408095 L21,2 L21,2 Z M22,2.5 L22,6.99121523 C22,7.54835167 22.4506511,8 22.9967388,8 L26.6999512,8 L22,2.5 L22,2.5 Z" id="documents" sketch:type="MSShapeGroup"></path>
        </g>
    </g>
</svg>

<svg width="32" height="32" xmlns="http://www.w3.org/2000/svg"><path d="M6.997 5.002V5A2.002 2.002 0 0 0 5 7.007v22.986A2 2 0 0 0 6.997 32h15.006c1.1 0 1.993-.894 2-2 1.1 0 1.993-.894 2-2A1.999 1.999 0 0 0 28 26.01V8l-6-7H11.003a2.009 2.009 0 0 0-2.006 2A2.002 2.002 0 0 0 7 5l-.003.002zM7 6c-.552 0-1 .455-1 .995v23.01c0 .55.455.995 1 .995h15c.552 0 1-.455 1-.995L8.997 30A2 2 0 0 1 7 27.993V6zm2-2c-.552 0-1 .455-1 .995v23.01c0 .55.455.995 1 .995h15c.552 0 1-.455 1-.995V28H10.997A2 2 0 0 1 9 25.993V4zm12-2H10.996c-.55 0-.996.455-.996.995v23.01c0 .55.455.995 1 .995h15c.552 0 1-.445 1-.993V9h-4.002A1.995 1.995 0 0 1 21 6.994V2zm1 .5v4.491c0 .557.45 1.009.997 1.009H26.7L22 2.5z" fill="#929292" fill-rule="evenodd"/></svg>
